X:1
T:The Storm Is Passing Over
T:Charles Albert Tindley, 1905, alt.
T:The Storm Is Passing Over
T:Public Domain
T:Public Domain
C:Charles Albert Tindley, 1905, alt.
Z:Public Domain
%%score ( 1 2 ) ( 3 4 )
L:1/8
M:4/4
K:Eb
V:1 treble 
V:2 treble 
V:3 bass 
V:4 bass 
V:1
 E | (EE) E>[EG] [EB]3 [EG] | [DF]>[DE] [DF]>[DG] E2 z [EB] | ([EB][EB]) ([EB]>[EB]) [Ec]3 [EB] | %4
w: 1.~O|age, * my soul, and let|on, For tho’~the night~is dark, it|be * ver- * y long.|
w: 2.~O|roll- * ing high, and thun-|ground, The light- nings flash, and|pest * all * a- round,|
w: 3.~The|dis- * ap- peared, and dist-|dim, My soul~is filled~with fears, the|are * break- * ing in.|
w: 4.~Now|we * shall reach the dist-|shore, Then free~from all~the storms, we’ll|for- * ev- * er- more.|
 [Ec]>[EB] [EB]>[EG] [EB]2 z [Ee] | ([Ee][Ee]) [Ee]>[Ec] [EB]3 [EB] | %6
w: O thanks be to God, the|morn- * ing light ap- pears,|
w: But Jesus walks the sea and|calms * the ang- ry waves,|
w: I hear~the Mas- ter cry, “Be|not * a- fraid, ’tis I,”|
w: And safe~with- in the veil, we’ll|furl * the riv- en sail,|
 [EB]>[EB] [Ec]>[EB] [EG]2 E>[EF] | [EG]>[EG] [EG]>[EF] E>B, [A,C]>[B,D] | [B,E]4 E2 || %9
w: And the storm is pass- ing o-|Hal- le- lu- jah! * * * *||
w: And the storm is pass- ing o-|Hal- le- lu- jah! * * * *||
w: And the storm is pass- ing o-|Hal- le- lu- jah! * * * *||
w: And the storm will all be o-|Hal- le- lu- jah! * * * *||
"^Refrain" [EB]>[EB] | (E2 A2) [Ec]2 [Ae]>[Ac] | (G2 E2) [EG]2 (E>[EF]) | %12
w: |||
w: |||
w: |||
w: |||
 [EG]>[EG] [EG]>[EF] E>B, [A,C]>[B,D] | (B,2 C2) [B,E]2 z2 |] %14
w: ||
w: ||
w: ||
w: ||
V:2
 E | EEE3/2 x9/2 | x4 E2 x2 | x8 | x8 | x8 | x6 E3/2 x/ | x4 E>B, x2 | x4 E2 || x2 | c4 x4 | %11
w: cour-|us jour- ney|won’t||||ver,|||||
w: billows|der shakes the|tem-||||ver,|||||
w: stars~have|ant lights are|seas||||ver,|||||
w: soon|ant shin- ing|rest||||ver,|||||
 B4 E3/2- x5/2 | x4 E>B, x2 | E4 x4 |] %14
w: |||
w: |||
w: |||
w: |||
V:3
 [E,G,] | [E,G,]2 [E,G,]>[E,B,] [E,G,]3 [E,B,] | [B,,B,]>[B,,B,] [B,,A,]>[B,,B,] [E,G,]2 z [E,G,] | %3
w: ~|~ ~ ~ ~ ~|~ ~ ~ ~ ~ ~|
 ([E,G,][E,G,]) ([E,G,]>[E,G,]) [A,,A,]3 [E,G,] | [E,A,]>[E,G,] [E,G,]>[E,B,] [E,G,]2 z [E,G,] | %5
w: ~ * ~ * ~ ~|~ ~ ~ ~ ~ ~|
 ([A,C][A,C]) [A,,C]>[C,A,] [E,G,]3 [E,G,] | [E,G,]>[E,G,] [E,A,]>[E,G,] [E,B,]2 [A,C]>[=A,C] | %7
w: ~ * ~ ~ ~ ~|~ ~ ~ ~ ~ ~ ~|
 B,>[G,B,] [E,B,]>[E,A,] [E,G,]>[E,G,] [B,,F,]>[B,,F,] | [E,G,]4 [E,G,]2 || [E,G,]>[E,G,] | %10
w: ~ ~ ~ ~ ~ ~ ~ ~|~ Hal-|le- lu-|
 (A,2 E,2) [A,,A,]2 [C,A,]>[E,A,] | (B,2 G,2) [E,B,]2 ([A,C]>[=A,C]) | %12
w: jah! * Hal- le- lu-|The * storm is *|
 B,>[E,B,] [E,B,]>[E,A,] [E,G,]>[E,G,] [B,,F,]>[B,,F,] | (G,2 A,2) [E,G,]2 z2 |] %14
w: ing o- ver, Hal- le- lu- jah! *||
V:4
 x | x8 | x8 | x8 | x8 | x8 | x8 | B,3/2 x13/2 | x6 || x2 | A,,4 x4 | E,4 x4 | B,3/2 x13/2 | %13
w: |||||||~|||jah!|pass-||
 E,4 x4 |] %14
w: |

